X:16
T:As a Th\`oiseach (Be Off, MacIntosh!)
R:Reel
B:The Athole Collection
M:C|
L:1/8
K:E Minor
^c|dEBE dEB^c|dEBE FDD^c|dEBE GBeB|^cAdA FDD:|
|:f|gebe geef|gebe fddf|1 gebe gefd|^cAdA FDD:|2 ebgb faeg|
f^cdA FDD||

